public/images/poses-sm/HappyBaby.svg

<svg width="800" height="900" fill="none" xmlns="http://www.w3.org/2000/svg"><path d="M186.176 586.593c16.972-20.376 47.522-50.942 47.522-50.942s64.494 16.979 108.622-27.168c44.127-44.15 122.199 37.357 122.199 37.357l98.438 37.357s16.972 33.96 37.34 44.149c0 0-40.735 0-88.256-3.397s-162.932 0-186.694 0c-23.76 0-36.47-5.051-47.522-27.169-10.182-20.375-91.649-10.187-91.649-10.187Z" fill="#fff" stroke="#000" stroke-width="5" stroke-miterlimit="10"/><path d="M186.176 586.593c16.972-20.376 47.522-50.942 47.522-50.942s64.494 16.979 108.622-27.168c44.127-44.15 122.199 37.357 122.199 37.357l98.438 37.357s16.972 33.96 37.34 44.149c0 0-40.735 0-88.256-3.397s-162.932 0-186.694 0c-23.76 0-36.47-5.051-47.522-27.169-10.182-20.375-91.649-10.187-91.649-10.187Z" stroke="#000" stroke-width="5" stroke-miterlimit="10"/><path d="M600.295 627.348c27.155 3.396 95.044 6.791 112.016-30.566 16.972-37.357.298-83.891-40.735-95.091-37.338-10.189-105.227-13.586-132.383-13.586h-64.494s6.789-108.676 6.789-166.41c0-57.734-6.789-84.902-6.789-108.675 0-23.773 13.579-40.753-3.395-40.753s-88.256-6.792-98.439 0c-10.183 6.792-6.828 14.068 33.945 16.98 47.522 3.396 44.128 40.754 44.128 40.754s-54.313 237.727-57.707 275.084c-3.395 37.358 27.157 57.734 67.889 64.526 40.735 6.793 101.834 13.586 101.834 13.586a85.621 85.621 0 0 0 34.771 42.551l2.57 1.6Z" fill="#fff" stroke="#000" stroke-width="5" stroke-miterlimit="10"/><path d="M600.295 627.348c27.155 3.396 95.044 6.791 112.016-30.566 16.972-37.357.298-83.891-40.735-95.091-37.338-10.189-105.227-13.586-132.383-13.586h-64.494s6.789-108.676 6.789-166.41c0-57.734-6.789-84.902-6.789-108.675 0-23.773 13.579-40.753-3.395-40.753s-88.256-6.792-98.439 0c-10.183 6.792-6.828 14.068 33.945 16.98 47.522 3.396 44.128 40.754 44.128 40.754s-54.313 237.727-57.707 275.084c-3.395 37.358 27.157 57.734 67.889 64.526 40.735 6.793 101.834 13.586 101.834 13.586a85.621 85.621 0 0 0 34.771 42.551l2.57 1.6Z" stroke="#000" stroke-width="5" stroke-miterlimit="10"/><path d="M476.118 235.551c-14.994-2.149-21.783-2.149-31.966 1.247" stroke="#000" stroke-width="5" stroke-miterlimit="10"/><path d="M293.942 552.162c-2.545 4.934-10.905 16.808-11.442 22.055-1.279 12.38-1.966 28.309 12.299 38.79 14.26 10.471 38.946-.92 46.639-16.704 7.694-15.775 7.002-21.1 9.872-28.093 2.864-6.988 31.661-58.592 49.83-97.038 18.172-38.451 35.336-97.585 39.945-134.942 4.601-37.358 9.977-77.547 12.238-92.829 2.261-15.283 10.721-62.119 3.981-78.89-6.74-16.765-20.277-15.903-24.854 7.121-4.585 23.019-1.615 48.914-4.796 72.903-3.182 23.982-18.172 90.56-28.356 119.428-10.184 28.866-5.378 28.074-39.607 92.544-34.231 64.467-65.749 95.655-65.749 95.655Z" fill="#fff" stroke="#000" stroke-width="5" stroke-miterlimit="10"/><path d="M293.942 552.162c-2.545 4.934-10.905 16.808-11.442 22.055-1.279 12.38-1.966 28.309 12.299 38.79 14.26 10.471 38.946-.92 46.639-16.704 7.694-15.775 7.002-21.1 9.872-28.093 2.864-6.988 31.661-58.592 49.83-97.038 18.172-38.451 35.336-97.585 39.945-134.942 4.601-37.358 9.977-77.547 12.238-92.829 2.261-15.283 10.721-62.119 3.981-78.89-6.74-16.765-20.277-15.903-24.854 7.121-4.585 23.019-1.615 48.914-4.796 72.903-3.182 23.982-18.172 90.56-28.356 119.428-10.184 28.866-5.378 28.074-39.607 92.544-34.231 64.467-65.749 95.655-65.749 95.655Z" stroke="#000" stroke-width="5" stroke-miterlimit="10"/><path d="M209.269 574.795c-10.436 6.347-19.727 4.564-32.93 7.023-20.973 3.917-42.55-21.1-41.944-44.941.809-31.483 112.988-36.55 115.501-18.41 1.322 9.559-6.932 24.343-21.481 37.397-4.604 4.126-9.119 8.359-13.369 12.841l-5.777 6.09Z" fill="#fff" stroke="#000" stroke-width="5" stroke-miterlimit="10"/><path d="M209.269 574.795c-10.436 6.347-19.727 4.564-32.93 7.023-20.973 3.917-42.55-21.1-41.944-44.941.809-31.483 112.988-36.55 115.501-18.41 1.322 9.559-6.932 24.343-21.481 37.397-4.604 4.126-9.119 8.359-13.369 12.841l-5.777 6.09Z" stroke="#000" stroke-width="5" stroke-miterlimit="10"/><path d="M149.223 518.711c17.609-.048 32.658 21.152 29.479 31.716-3.178 10.563-4.137 18.144-.653 19.557 3.484 1.41 9.48 1.151 10.217-1.976.733-3.124-.265-10.262 5.894-10.079 6.169.183 20.874 11.025 24.072 23.925 3.203 12.902-8.602 28.797-28.421 33.016-19.816 4.228-44.94-14.426-57.307-34.891-5.967-9.869-8.5-21.955-7.177-32.064 2.167-16.661 6.605-29.154 23.896-29.204Z" fill="#000" stroke="#000" stroke-width="5" stroke-miterlimit="10"/><path d="M154.368 746.172c13.68-.464 29.767-6.075 29.181-28.885-.444-17.268-20.48-43.098-21.6-54.24-1.126-11.137 11.811-13.538 14.003-30.525 2.194-16.994-8.512-24.814-15.859-33.829 0 0-32.538 1.267-37.958 18.274-5.42 17.008 3.676 22.229-.454 36.787-5.015 17.704-31.565 12.951-38.46 36.591-4.916 16.863-1.502 31.132 8.556 39.416 16.763 13.804 38.117 17.247 62.591 16.411Z" fill="#000" stroke="#000" stroke-width="5" stroke-miterlimit="10"/><path d="M274.643 592.916c-1.913-24.998 16.253-49.721 30.932-61.136" stroke="#000" stroke-width="5" stroke-miterlimit="10"/></svg>

<svg width="800" height="900" viewBox="0 0 800 900" fill="none" xmlns="http://www.w3.org/2000/svg">
<path d="M186.176 586.593C203.148 566.217 233.698 535.651 233.698 535.651C233.698 535.651 298.192 552.63 342.32 508.483C386.447 464.333 464.519 545.84 464.519 545.84L562.957 583.197C562.957 583.197 579.929 617.157 600.297 627.346C600.297 627.346 559.562 627.346 512.041 623.949C464.52 620.552 349.109 623.949 325.347 623.949C301.587 623.949 288.877 618.898 277.825 596.78C267.643 576.405 186.176 586.593 186.176 586.593Z" fill="white" stroke="black" stroke-width="5" stroke-miterlimit="10"/>
<path d="M186.176 586.593C203.148 566.217 233.698 535.651 233.698 535.651C233.698 535.651 298.192 552.63 342.32 508.483C386.447 464.333 464.519 545.84 464.519 545.84L562.957 583.197C562.957 583.197 579.929 617.157 600.297 627.346C600.297 627.346 559.562 627.346 512.041 623.949C464.52 620.552 349.109 623.949 325.347 623.949C301.587 623.949 288.877 618.898 277.825 596.78C267.643 576.405 186.176 586.593 186.176 586.593Z" stroke="black" stroke-width="5" stroke-miterlimit="10"/>
<path d="M600.295 627.348C627.45 630.744 695.339 634.139 712.311 596.782C729.283 559.425 712.609 512.891 671.576 501.691C634.238 491.502 566.349 488.105 539.193 488.105H474.699C474.699 488.105 481.488 379.429 481.488 321.695C481.488 263.961 474.699 236.793 474.699 213.02C474.699 189.247 488.278 172.267 471.304 172.267C454.33 172.267 383.048 165.475 372.865 172.267C362.682 179.059 366.037 186.335 406.81 189.247C454.332 192.643 450.938 230.001 450.938 230.001C450.938 230.001 396.625 467.728 393.231 505.085C389.836 542.443 420.388 562.819 461.12 569.611C501.855 576.404 562.954 583.197 562.954 583.197C569.555 600.821 581.779 615.771 597.725 625.748L600.295 627.348Z" fill="white" stroke="black" stroke-width="5" stroke-miterlimit="10"/>
<path d="M600.295 627.348C627.45 630.744 695.339 634.139 712.311 596.782C729.283 559.425 712.609 512.891 671.576 501.691C634.238 491.502 566.349 488.105 539.193 488.105H474.699C474.699 488.105 481.488 379.429 481.488 321.695C481.488 263.961 474.699 236.793 474.699 213.02C474.699 189.247 488.278 172.267 471.304 172.267C454.33 172.267 383.048 165.475 372.865 172.267C362.682 179.059 366.037 186.335 406.81 189.247C454.332 192.643 450.938 230.001 450.938 230.001C450.938 230.001 396.625 467.728 393.231 505.085C389.836 542.443 420.388 562.819 461.12 569.611C501.855 576.404 562.954 583.197 562.954 583.197C569.555 600.821 581.779 615.771 597.725 625.748L600.295 627.348Z" stroke="black" stroke-width="5" stroke-miterlimit="10"/>
<path d="M476.118 235.551C461.124 233.402 454.335 233.402 444.152 236.798" stroke="black" stroke-width="5" stroke-miterlimit="10"/>
<path d="M293.942 552.162C291.397 557.096 283.037 568.97 282.5 574.217C281.221 586.597 280.534 602.526 294.799 613.007C309.059 623.478 333.745 612.087 341.438 596.303C349.132 580.528 348.44 575.203 351.31 568.21C354.174 561.222 382.971 509.618 401.14 471.172C419.312 432.721 436.476 373.587 441.085 336.23C445.686 298.872 451.062 258.683 453.323 243.401C455.584 228.118 464.044 181.282 457.304 164.511C450.564 147.746 437.027 148.608 432.45 171.632C427.865 194.651 430.835 220.546 427.654 244.535C424.472 268.517 409.482 335.095 399.298 363.963C389.114 392.829 393.92 392.037 359.691 456.507C325.46 520.974 293.942 552.162 293.942 552.162Z" fill="white" stroke="black" stroke-width="5" stroke-miterlimit="10"/>
<path d="M293.942 552.162C291.397 557.096 283.037 568.97 282.5 574.217C281.221 586.597 280.534 602.526 294.799 613.007C309.059 623.478 333.745 612.087 341.438 596.303C349.132 580.528 348.44 575.203 351.31 568.21C354.174 561.222 382.971 509.618 401.14 471.172C419.312 432.721 436.476 373.587 441.085 336.23C445.686 298.872 451.062 258.683 453.323 243.401C455.584 228.118 464.044 181.282 457.304 164.511C450.564 147.746 437.027 148.608 432.45 171.632C427.865 194.651 430.835 220.546 427.654 244.535C424.472 268.517 409.482 335.095 399.298 363.963C389.114 392.829 393.92 392.037 359.691 456.507C325.46 520.974 293.942 552.162 293.942 552.162Z" stroke="black" stroke-width="5" stroke-miterlimit="10"/>
<path d="M209.269 574.795C198.833 581.142 189.542 579.359 176.339 581.818C155.366 585.735 133.789 560.718 134.395 536.877C135.204 505.394 247.383 500.327 249.896 518.467C251.218 528.026 242.964 542.81 228.415 555.864C223.811 559.99 219.296 564.223 215.046 568.705L209.269 574.795Z" fill="white" stroke="black" stroke-width="5" stroke-miterlimit="10"/>
<path d="M209.269 574.795C198.833 581.142 189.542 579.359 176.339 581.818C155.366 585.735 133.789 560.718 134.395 536.877C135.204 505.394 247.383 500.327 249.896 518.467C251.218 528.026 242.964 542.81 228.415 555.864C223.811 559.99 219.296 564.223 215.046 568.705L209.269 574.795Z" stroke="black" stroke-width="5" stroke-miterlimit="10"/>
<path d="M149.223 518.711C166.832 518.663 181.881 539.863 178.702 550.427C175.524 560.99 174.565 568.571 178.049 569.984C181.533 571.394 187.529 571.135 188.266 568.008C188.999 564.884 188.001 557.746 194.16 557.929C200.329 558.112 215.034 568.954 218.232 581.854C221.435 594.756 209.63 610.651 189.811 614.87C169.995 619.098 144.871 600.444 132.504 579.979C126.537 570.11 124.004 558.024 125.327 547.915C127.494 531.254 131.932 518.761 149.223 518.711Z" fill="black" stroke="black" stroke-width="5" stroke-miterlimit="10"/>
<path d="M154.368 746.172C168.048 745.708 184.135 740.097 183.549 717.287C183.105 700.019 163.069 674.189 161.949 663.047C160.823 651.91 173.76 649.509 175.952 632.522C178.146 615.528 167.44 607.708 160.093 598.693C160.093 598.693 127.555 599.96 122.135 616.967C116.715 633.975 125.811 639.196 121.681 653.754C116.666 671.458 90.1161 666.705 83.2213 690.345C78.3053 707.208 81.7194 721.477 91.7767 729.761C108.54 743.565 129.894 747.008 154.368 746.172Z" fill="black" stroke="black" stroke-width="5" stroke-miterlimit="10"/>
<path d="M274.643 592.916C272.73 567.918 290.896 543.195 305.575 531.78" stroke="black" stroke-width="5" stroke-miterlimit="10"/>
</svg>
